X: 1
T: The Green Fields of Rockall
S: Francie Byrne, via Danny O'Donnell
N: played after "The Launching of the Boat"
Z: Paul de Grae  irtrad-l 2001-5-17
R: reel
M: 4/4
L: 1/8
K: G
DF \
|  G2BG A2Bc | dBcA  BGAF | DGBG A2Bc | (3dcB cA BGB,D |
   G2BG A2Bc | dBcA  BGAF | DGBG A2Bc | (3dcB cA BG :| G2 ||
|: gfge fafd | efed ^cdef | gfge abaf | gbaf gdBd |
   gbge fafd | efed ^cdef | gdBd ecAd | BGAF DGG2 :|
